X: 332
T: A Rainy Day
R: jig
M: 6/8
K: Gmajor
|:E|DGB D2 B|dcB c2 e|dBG FGA|BA^G A2 e|
dGB d2 B|dcB c2 e|dBG FF/G/A|AGF G2:|
|:D|GBd gfg|dcB c2 e|dBG FGA|BA^G A2 d|
GB/c/d gdg|ecB c2 A|dBG FGA|ABA G2:|

